X:1
T:Gambling on the Sabbath Day
M:2/4
L:1/8
K:F
 F| A3 c| cA G3/2 A/2| F3 F| A3 c| cA dc| G3 F| A3 c| cA GF| d4| z2 d2|\
 c3 c| dc BG| F3||
